FINK
CUT[ICH WUENSCHT ES WAERE NACHT]
REG[Europa, Mitteleuropa, Deutschland, Schlesien]
KEY[F0858  08 Bb 3/4]
MEL[-5_  1_-3_-5-5  1__
    31  2_.342  3__0_
    232_-5_  1_.23_
    232_-5_  1_.23_
    423_2_  1__0_ //] >>
FCT[erzaehlendes Volks - Lied, Liebe]
